Costumes/b-block.svg

<?xml version="1.0" encoding="UTF-8" standalone="no"?>
<svg
   version="1.1"
   width="54.443966"
   height="79.583595"
   id="svg8"
   sodipodi:docname="b-block.svg"
   xmlns:inkscape="http://www.inkscape.org/namespaces/inkscape"
   xmlns:sodipodi="http://sodipodi.sourceforge.net/DTD/sodipodi-0.dtd"
   xmlns="http://www.w3.org/2000/svg"
   xmlns:svg="http://www.w3.org/2000/svg">
  <defs
     id="defs12" />
  <sodipodi:namedview
     id="namedview10"
     pagecolor="#ffffff"
     bordercolor="#000000"
     borderopacity="0.25"
     inkscape:showpageshadow="2"
     inkscape:pageopacity="0.0"
     inkscape:pagecheckerboard="0"
     inkscape:deskcolor="#d1d1d1" />
  <!-- Exported by Scratch - http://scratch.mit.edu/ -->
  <g
     id="ID0.7359559829346836"
     transform="translate(-0.58426711,-0.52586908)">
    <path
       id="ID0.655843990854919"
       fill="#ff9400"
       d="m 317,362 c 9.06,8.612 -0.864,17.188 -5,24 6.914,1.419 11.83,4.837 16,9 5.618,20.957 -14.535,28.956 -37,28 -1.929,-21.565 -1.968,-39.655 -3,-61 10.499,-2.17 17.423,-2.056 29,0 m -18,24 c 6.389,-5.25 19.529,-8.741 13,-21 -6.637,0.582 -8.547,-0.043 -16,0 2.496,8.778 -1.909,13.573 3,21 m 0,8 c -2.249,7.969 0.605,14.963 -1,23 9.53,-0.803 18.246,-2.42 24,-7 0.549,-3.582 2.236,-9.785 0,-13 -6.865,-1.802 -13.572,-3.761 -23,-3"
       transform="matrix(1.0324254,0,0,1.0324254,-288.25,-368.05)" />
    <path
       id="ID0.8627853649668396"
       d="m 296,365 c 7.453,-0.043 9.363,0.582 16,0 6.529,12.259 -6.611,15.75 -13,21 -4.909,-7.427 -0.504,-12.222 -3,-21 m 4.75,14.75 c 2.506,-0.029 8.526,-4.353 8.25,-6.75 -0.335,-2.186 -7.202,-4.795 -9.25,-3.25 -2.076,1.829 -0.804,9.627 1,10 z"
       transform="matrix(1.0324254,0,0,1.0324254,-288.25,-368.05)" />
    <path
       id="ID0.09306629886850715"
       d="m 322,397 c 2.236,3.215 0.549,9.418 0,13 -5.754,4.58 -14.47,6.197 -24,7 1.605,-8.037 -1.249,-15.031 1,-23 9.428,-0.761 16.135,1.198 23,3 m -21,17 c 5.508,-0.142 9.414,-2.644 16,-4 -0.759,-6.908 -8.137,-7.196 -16,-7 0.764,4.359 -1.237,9.263 0,11"
       transform="matrix(1.0324254,0,0,1.0324254,-288.25,-368.05)" />
    <path
       id="ID0.05722344573587179"
       fill="#ffffff"
       d="m 295,434 c -0.451,-1.634 5.451,-1.634 5,0 -1.667,0 -3.333,0 -5,0 z"
       transform="matrix(1.0324254,0,0,1.0324254,-288.25,-368.05)" />
    <path
       id="ID0.16511963680386543"
       d="m 297,357 c 2.333,0 4.667,0 7,0 1.526,0 2.948,0.881 4.539,1.032 3.336,0.317 7.35,-0.558 10.461,0.968 5.425,6.473 6.045,19.497 1,26 7.422,0.579 8.946,7.054 12,12 0,3.667 1.118,7.514 0,11 -1.628,5.04 -4.113,10.513 -8.25,14 -5.9,4.97 -13.329,7.548 -20.25,10.5 -2.736,1.079 -5.79,1.149 -8.5,1.501 -1.43,0.187 -2.89,0 -4.333,0 -2.887,0 -5.778,0 -8.667,0 -1.137,-10.964 -1.327,-22.094 -1.772,-33.13 -0.156,-3.958 0.01,-8.079 0.022,-12.121 -0.005,-2.908 0.045,-5.757 0,-8.75 -0.073,-4.993 -0.876,-9.86 -0.25,-15 0.157,-1.285 1.776,-1.697 2.5,-2.75 0.948,-0.954 1.185,-2.744 2.5,-3.25 3.784,-1.446 8.024,0.554 12,-2 m -9,5 c 1.032,21.345 1.071,39.435 3,61 22.465,0.956 42.618,-7.043 37,-28 -4.17,-4.163 -9.086,-7.581 -16,-9 4.136,-6.812 14.06,-15.388 5,-24 -11.577,-2.056 -18.501,-2.17 -29,0"
       transform="matrix(1.0324254,0,0,1.0324254,-288.25,-368.05)" />
  </g>
</svg>

<svg version="1.1" width="55" height="81" xmlns="http://www.w3.org/2000/svg" xmlns:xlink="http://www.w3.org/1999/xlink">
  <!-- Exported by Scratch - http://scratch.mit.edu/ -->
  <g id="ID0.7359559829346836">
    <path id="ID0.655843990854919" fill="#FF9400" d="M 317 362 C 326.060 370.612 316.136 379.188 312 386 C 318.914 387.419 323.830 390.837 328 395 C 333.618 415.957 313.465 423.956 291 423 C 289.071 401.435 289.032 383.345 288 362 C 298.499 359.830 305.423 359.944 317 362 M 299 386 C 305.389 380.750 318.529 377.259 312 365 C 305.363 365.582 303.453 364.957 296 365 C 298.496 373.778 294.091 378.573 299 386 M 299 394 C 296.751 401.969 299.605 408.963 298 417 C 307.530 416.197 316.246 414.580 322 410 C 322.549 406.418 324.236 400.215 322 397 C 315.135 395.198 308.428 393.239 299 394 " transform="matrix(1.0324254035949707, 0, 0, 1.0324254035949707, -288.25, -368.05)"/>
    <path id="ID0.8627853649668396" d="M 296 365 C 303.453 364.957 305.363 365.582 312 365 C 318.529 377.259 305.389 380.750 299 386 C 294.091 378.573 298.496 373.778 296 365 M 300.750 379.750 C 303.256 379.721 309.276 375.397 309 373 C 308.665 370.814 301.798 368.205 299.750 369.750 C 297.674 371.579 298.946 379.377 300.750 379.750 Z " transform="matrix(1.0324254035949707, 0, 0, 1.0324254035949707, -288.25, -368.05)"/>
    <path id="ID0.09306629886850715" d="M 322 397 C 324.236 400.215 322.549 406.418 322 410 C 316.246 414.580 307.530 416.197 298 417 C 299.605 408.963 296.751 401.969 299 394 C 308.428 393.239 315.135 395.198 322 397 M 301 414 C 306.508 413.858 310.414 411.356 317 410 C 316.241 403.092 308.863 402.804 301 403 C 301.764 407.359 299.763 412.263 301 414 " transform="matrix(1.0324254035949707, 0, 0, 1.0324254035949707, -288.25, -368.05)"/>
    <path id="ID0.05722344573587179" fill="#FFFFFF" d="M 295 434 C 294.549 432.366 300.451 432.366 300 434 C 298.333 434 296.667 434 295 434 Z " transform="matrix(1.0324254035949707, 0, 0, 1.0324254035949707, -288.25, -368.05)"/>
    <path id="ID0.16511963680386543" d="M 297 357 C 299.333 357 301.667 357 304 357 C 305.526 357 306.948 357.881 308.539 358.032 C 311.875 358.349 315.889 357.474 319 359 C 324.425 365.473 325.045 378.497 320 385 C 327.422 385.579 328.946 392.054 332 397 C 332 400.667 333.118 404.514 332 408 C 330.372 413.040 327.887 418.513 323.750 422 C 317.850 426.970 310.421 429.548 303.500 432.500 C 300.764 433.579 297.710 433.649 295 434.001 C 293.570 434.188 292.110 434.001 290.667 434.001 C 287.780 434.001 284.889 434.001 282 434.001 C 280.863 423.037 280.673 411.907 280.228 400.871 C 280.072 396.913 280.238 392.792 280.250 388.750 C 280.245 385.842 280.295 382.993 280.250 380 C 280.177 375.007 279.374 370.140 280 365 C 280.157 363.715 281.776 363.303 282.500 362.250 C 283.448 361.296 283.685 359.506 285 359 C 288.784 357.554 293.024 359.554 297 357 M 288 362 C 289.032 383.345 289.071 401.435 291 423 C 313.465 423.956 333.618 415.957 328 395 C 323.830 390.837 318.914 387.419 312 386 C 316.136 379.188 326.060 370.612 317 362 C 305.423 359.944 298.499 359.830 288 362 " transform="matrix(1.0324254035949707, 0, 0, 1.0324254035949707, -288.25, -368.05)"/>
  </g>
</svg>
